X:269
T:Reel 269
M:4/4
K:Dmaj
L:1/8
F>E (3DCB, A,>G, (3G,A,B, |DFFF A2FA|FGED  (3B,A,B, GF|EFGE B2AG| (3FED AD BDA,C|DCDB, A,2A,G|FGAF GEFDEE|DB,A,B, D2FG|AFGF GEFE|DCB,A, B,2Bc|dBcA BGAF|GFED E2AG| (3FGF  (3FGF GAFD|ABAF  (3GFE DB,|A,B,DF GEFD|EA,B,C DGFG|
